src/status/symbolic/bluetooth-disabled-symbolic.svg

<?xml version="1.0" encoding="UTF-8" standalone="no"?>
<svg
   width="16"
   height="16"
   version="1.1"
   id="svg1"
   sodipodi:docname="bluetooth-disabled-symbolic.svg"
   inkscape:version="1.3.2 (091e20ef0f, 2023-11-25)"
   xmlns:inkscape="http://www.inkscape.org/namespaces/inkscape"
   xmlns:sodipodi="http://sodipodi.sourceforge.net/DTD/sodipodi-0.dtd"
   xmlns="http://www.w3.org/2000/svg"
   xmlns:svg="http://www.w3.org/2000/svg">
  <defs
     id="defs1" />
  <sodipodi:namedview
     id="namedview1"
     pagecolor="#ffffff"
     bordercolor="#111111"
     borderopacity="1"
     inkscape:showpageshadow="0"
     inkscape:pageopacity="0"
     inkscape:pagecheckerboard="1"
     inkscape:deskcolor="#d1d1d1"
     inkscape:zoom="25.09375"
     inkscape:cx="4.6027397"
     inkscape:cy="3.4072229"
     inkscape:window-width="1920"
     inkscape:window-height="1011"
     inkscape:window-x="0"
     inkscape:window-y="0"
     inkscape:window-maximized="1"
     inkscape:current-layer="svg1" />
  <path
     d="M 7.1858194,0.07849638 A 0.56953146,0.56953146 0 0 0 6.8499207,0.5968093 V 6.6163826 L 3.7355786,4.6699188 A 0.56947451,0.56947451 0 0 0 2.9503301,4.8501005 0.56947451,0.56947451 0 0 0 3.1305119,5.6353489 l 3.7193518,2.3245949 v 0.080083 L 3.1305119,10.364622 A 0.56947451,0.56947451 0 0 0 2.9503301,11.14987 0.56947451,0.56947451 0 0 0 3.7355786,11.330052 L 6.8499207,9.3835879 v 6.0195741 a 0.56953146,0.56953146 0 0 0 0.9476396,0.424884 l 5.1252707,-4.555797 a 0.56953146,0.56953146 0 0 0 -0.07563,-0.907605 L 9.063263,7.9999584 12.847193,5.6352725 a 0.56953146,0.56953146 0 0 0 0.07564,-0.9076057 L 7.7975603,0.17187084 A 0.56953146,0.56953146 0 0 0 7.1858194,0.07844172 Z M 7.9888696,1.864824 11.599224,5.07256 7.9888696,7.3282485 Z m 0,6.8070425 3.6103544,2.2556885 -3.6103544,3.207736 z"
     fill="#363636"
     opacity="0.35"
     id="path1"
     style="stroke-width:1.13894" />
  <rect
     transform="rotate(45)"
     x="0.53056085"
     y="-0.53061688"
     width="21.549974"
     height="1.0774988"
     rx="0.5387494"
     ry="0.5387494"
     fill="#363636"
     stroke-linecap="round"
     stroke-linejoin="round"
     stroke-width="0.520507"
     style="paint-order:markers stroke fill"
     id="rect1" />
</svg>

<?xml version="1.0" encoding="UTF-8"?>
<svg id="svg1" width="16" height="16" version="1.1" xmlns="http://www.w3.org/2000/svg">
 <path id="path1" d="m7.1858 0.078496a0.56953 0.56953 0 0 0-0.3359 0.51831v6.0196l-3.1143-1.9465a0.56947 0.56947 0 0 0-0.78525 0.18018 0.56947 0.56947 0 0 0 0.18018 0.78525l3.7194 2.3246v0.080083l-3.7194 2.3246a0.56947 0.56947 0 0 0-0.18018 0.78525 0.56947 0.56947 0 0 0 0.78525 0.18018l3.1143-1.9465v6.0196a0.56953 0.56953 0 0 0 0.94764 0.42488l5.1253-4.5558a0.56953 0.56953 0 0 0-0.07563-0.9076l-3.7839-2.3647 3.7839-2.3647a0.56953 0.56953 0 0 0 0.07564-0.90761l-5.1253-4.5558a0.56953 0.56953 0 0 0-0.61174-0.093429zm0.80305 1.7863 3.6104 3.2077-3.6104 2.2557zm0 6.807 3.6104 2.2557-3.6104 3.2077z" fill="#363636" opacity=".35" stroke-width="1.1389"/>
 <rect id="rect1" transform="rotate(45)" x=".53056" y="-.53062" width="21.55" height="1.0775" rx=".53875" ry=".53875" fill="#363636" stroke-linecap="round" stroke-linejoin="round" stroke-width=".52051" style="paint-order:markers stroke fill"/>
</svg>
